packages/kaspersky-hexa-ui-icons/src/iconsSVGs/32/GraphicKey.svg

<svg xmlns="http://www.w3.org/2000/svg" width="32" height="32" fill="none" viewBox="0 0 32 32"><path fill="#000" fill-rule="evenodd" d="M28 9c0 2.7614-2.2386 5-5 5-1.0191 0-1.967-.3049-2.7574-.8284l-7.071 7.071C13.6951 21.033 14 21.9809 14 23c0 2.7614-2.2386 5-5 5s-5-2.2386-5-5 2.2386-5 5-5c1.0191 0 1.967.3049 2.7574.8284l7.071-7.071C18.3049 10.967 18 10.0191 18 9c0-2.7614 2.2386-5 5-5s5 2.2386 5 5M9 26c1.6569 0 3-1.3431 3-3s-1.3431-3-3-3-3 1.3431-3 3 1.3431 3 3 3"/></svg>

<svg width="32" height="32" viewBox="0 0 32 32" fill="none" xmlns="http://www.w3.org/2000/svg">
<path fill-rule="evenodd" clip-rule="evenodd" d="M28 9C28 11.7614 25.7614 14 23 14C21.9809 14 21.033 13.6951 20.2426 13.1716L13.1716 20.2426C13.6951 21.033 14 21.9809 14 23C14 25.7614 11.7614 28 9 28C6.23858 28 4 25.7614 4 23C4 20.2386 6.23858 18 9 18C10.0191 18 10.967 18.3049 11.7574 18.8284L18.8284 11.7574C18.3049 10.967 18 10.0191 18 9C18 6.23858 20.2386 4 23 4C25.7614 4 28 6.23858 28 9ZM9 26C10.6569 26 12 24.6569 12 23C12 21.3431 10.6569 20 9 20C7.34315 20 6 21.3431 6 23C6 24.6569 7.34315 26 9 26Z" fill="black"/>
</svg>
